X: 586
T: Xiaoniao chuang
%%abc-version 2.0
%%abcx-abcm2ps-target-version 5.9.1 (29 Sep 2008)
%%abc-creator hum2abc beta
%%abcx-conversion-date 2013/10/02 07:52:30
%%abc-edited-by Helmut Schaffrath
%%humdrum-veritas 2057217209
%%humdrum-veritas-data 2000154598
%%continueall 1
%%barnumbers 0
L: 1/8
M: 2/4
K: F
dd2c [I:setbarnb 1]| 
f dc2 | 
c f d c | 
cA2G | 
A2z2 | 
dd2c | 
f dc2 | 
c f d c | 
cA2G | 
A2z2 | 
A GF2 | 
c> d c A | 
cA2G | 
A2z2 | 
c2A3/ G/ | 
F A G F | 
ED2C | 
D2z2 |]  



